X: 1
T:BEDLAM- Black's Lamentation, The
S:single sheet song with music, c 1730-40
Q:1/4=60
L:1/4
M:3/4
K:Am
e/d/ c/ B/A|fe/d/e|Ad/f/ e/d/|c/B/Az|ed/c/ B/A/|\
fe/d/e|Ad/f/e/ d/|c/B/Az||e/f/gg/a/|gf/ e/f|\
z/e/ (d3/2e/)|fe/d/e|ed/c/ B/A/|d/f/e/ d/e|\
Ad/f/e/ d/|c/B/Az|]
